src/imagens/header/icon.linkedin.svg

<svg width="25" height="29" viewBox="0 0 25 29" fill="none" xmlns="http://www.w3.org/2000/svg">
<g filter="url(#filter0_i_112_600)">
<path d="M2.10553 22.6681L10.6132 27.3473C11.8224 28.0124 13.289 28.0072 14.4935 27.3335L22.825 22.6735C24.0892 21.9664 24.8724 20.631 24.8724 19.1825L24.8724 9.26297C24.8724 7.81442 24.0892 6.47906 22.825 5.77194L14.4935 1.11194C13.289 0.438274 11.8224 0.433046 10.6132 1.09811L2.10553 5.77731C0.827336 6.48032 0.0332031 7.82341 0.0332031 9.28217L0.0332031 19.1633C0.0332031 20.622 0.827335 21.9651 2.10553 22.6681Z" fill="url(#paint0_linear_112_600)"/>
</g>
<path d="M10.652 19.7431C10.652 19.6895 10.652 19.6382 10.652 19.5869C10.652 17.184 10.652 14.7833 10.652 12.3804C10.652 12.3135 10.6475 12.26 10.7457 12.26C11.4552 12.2644 12.1669 12.2622 12.8764 12.2622C12.8943 12.2622 12.9121 12.2667 12.9411 12.2711C12.9411 12.5835 12.9411 12.8914 12.9411 13.2015C12.95 13.2037 12.9567 13.2082 12.9657 13.2104C13.0549 13.0944 13.1397 12.9739 13.2334 12.8601C13.5056 12.5255 13.847 12.28 14.2486 12.1328C14.4672 12.0525 14.7059 12.0034 14.9357 11.9922C15.2525 11.9788 15.5761 11.9833 15.8884 12.0368C16.4016 12.1239 16.8545 12.3514 17.2293 12.724C17.5841 13.0743 17.8183 13.496 17.9455 13.9712C18.0124 14.2233 18.0548 14.4821 18.095 14.7387C18.1218 14.9172 18.1351 15.1002 18.1351 15.2786C18.1374 16.7289 18.1374 18.1791 18.1374 19.6293C18.1374 19.665 18.1351 19.7007 18.1329 19.7475C18.0905 19.7475 18.0548 19.7475 18.0191 19.7475C17.3342 19.7475 16.6515 19.7453 15.9665 19.7498C15.8527 19.7498 15.8326 19.7118 15.8326 19.6092C15.8349 18.275 15.8393 16.9386 15.8304 15.6044C15.8282 15.3701 15.8059 15.1269 15.7456 14.9016C15.6363 14.5067 15.3864 14.2211 14.9893 14.0761C14.6546 13.9534 14.3155 13.9311 13.9719 14.0181C13.5926 14.114 13.3316 14.3661 13.1352 14.6986C12.9835 14.9551 12.9545 15.2385 12.9523 15.5218C12.9434 16.8761 12.9478 18.2282 12.9478 19.5824C12.9478 19.6338 12.9478 19.6851 12.9478 19.7409C12.1781 19.7431 11.4217 19.7431 10.652 19.7431Z" fill="#0D0D0D"/>
<path d="M9.21518 16.0373C9.21518 17.2264 9.21295 18.4156 9.21741 19.6048C9.21741 19.7119 9.1951 19.752 9.07685 19.7498C8.39636 19.7431 7.71588 19.7431 7.03539 19.7498C6.92383 19.7498 6.89929 19.7119 6.89929 19.6093C6.90152 17.2197 6.90152 14.828 6.89929 12.4385C6.89929 12.3425 6.92607 12.3091 7.02423 12.3091C7.71141 12.3135 8.3986 12.3135 9.08801 12.3091C9.1951 12.3091 9.21518 12.3492 9.21518 12.4452C9.21518 13.6433 9.21518 14.8414 9.21518 16.0373Z" fill="#0D0D0D"/>
<path d="M8.03276 8.50069C8.76679 8.48284 9.20632 9.01607 9.20855 9.66979C9.21078 10.3391 8.74225 10.8389 8.00599 10.8367C7.32104 10.8367 6.83689 10.3458 6.83912 9.65194C6.84135 9.00269 7.31211 8.47838 8.03276 8.50069Z" fill="#0D0D0D"/>
<defs>
<filter id="filter0_i_112_600" x="0.0332031" y="0.603027" width="25.2566" height="27.6567" filterUnits="userSpaceOnUse" color-interpolation-filters="sRGB">
<feFlood flood-opacity="0" result="BackgroundImageFix"/>
<feBlend mode="normal" in="SourceGraphic" in2="BackgroundImageFix" result="shape"/>
<feColorMatrix in="SourceAlpha" type="matrix" values="0 0 0 0 0 0 0 0 0 0 0 0 0 0 0 0 0 0 127 0" result="hardAlpha"/>
<feOffset dx="0.417465" dy="0.417465"/>
<feGaussianBlur stdDeviation="0.626197"/>
<feComposite in2="hardAlpha" operator="arithmetic" k2="-1" k3="1"/>
<feColorMatrix type="matrix" values="0 0 0 0 0 0 0 0 0 0 0 0 0 0 0 0 0 0 0.25 0"/>
<feBlend mode="normal" in2="shape" result="effect1_innerShadow_112_600"/>
</filter>
<linearGradient id="paint0_linear_112_600" x1="0.0332031" y1="14.2227" x2="24.8724" y2="14.2227" gradientUnits="userSpaceOnUse">
<stop stop-color="#00E6AE"/>
<stop offset="1" stop-color="#00CC9B"/>
</linearGradient>
</defs>
</svg>

<svg xmlns="http://www.w3.org/2000/svg" width="25" height="29" fill="none"><g filter="url(#a)"><path fill="url(#b)" d="m2.106 22.668 8.507 4.68a4 4 0 0 0 3.88-.014l8.332-4.66a4 4 0 0 0 2.047-3.491v-9.92a4 4 0 0 0-2.047-3.491l-8.332-4.66a4 4 0 0 0-3.88-.014l-8.507 4.68A4 4 0 0 0 .033 9.281v9.881a4 4 0 0 0 2.073 3.505Z"/></g><path fill="#0D0D0D" d="M10.652 19.743V12.38c0-.067-.004-.12.094-.12.71.004 1.42.002 2.13.002.018 0 .036.005.065.01v.93l.025.008c.089-.116.174-.236.267-.35a2.326 2.326 0 0 1 1.703-.868c.316-.013.64-.009.952.045.514.087.967.314 1.341.687.355.35.59.772.716 1.247.067.252.11.511.15.768.027.178.04.361.04.54.002 1.45.002 2.9.002 4.35 0 .036-.002.072-.004.118h-.114c-.685 0-1.367-.002-2.052.003-.114 0-.134-.038-.134-.14.002-1.335.006-2.671-.003-4.006a2.854 2.854 0 0 0-.084-.702c-.11-.395-.36-.68-.757-.826a1.689 1.689 0 0 0-1.017-.058c-.38.096-.64.348-.837.68-.152.257-.18.54-.183.824-.009 1.354-.004 2.706-.004 4.06v.159c-.77.002-1.526.002-2.296.002ZM9.215 16.037c0 1.19-.002 2.379.002 3.568 0 .107-.022.147-.14.145-.68-.007-1.361-.007-2.042 0-.111 0-.136-.038-.136-.14.003-2.39.003-4.782 0-7.171 0-.097.027-.13.125-.13.687.005 1.375.005 2.064 0 .107 0 .127.04.127.136v3.592ZM8.033 8.5c.734-.017 1.173.516 1.176 1.17.002.67-.467 1.169-1.203 1.167-.685 0-1.17-.491-1.167-1.185.002-.65.473-1.174 1.194-1.151Z"/><defs><linearGradient id="b" x1=".033" x2="24.872" y1="14.223" y2="14.223" gradientUnits="userSpaceOnUse"><stop stop-color="#00E6AE"/><stop offset="1" stop-color="#00CC9B"/></linearGradient><filter id="a" width="25.257" height="27.657" x=".033" y=".603" color-interpolation-filters="sRGB" filterUnits="userSpaceOnUse"><feFlood flood-opacity="0" result="BackgroundImageFix"/><feBlend in="SourceGraphic" in2="BackgroundImageFix" result="shape"/><feColorMatrix in="SourceAlpha" result="hardAlpha" values="0 0 0 0 0 0 0 0 0 0 0 0 0 0 0 0 0 0 127 0"/><feOffset dx=".417" dy=".417"/><feGaussianBlur stdDeviation=".626"/><feComposite in2="hardAlpha" k2="-1" k3="1" operator="arithmetic"/><feColorMatrix values="0 0 0 0 0 0 0 0 0 0 0 0 0 0 0 0 0 0 0.25 0"/><feBlend in2="shape" result="effect1_innerShadow_112_600"/></filter></defs></svg>
